X:1
T:Come lume di notte
T:Orlando Lasso
T:Come lume di notte
C:Orlando Lasso
Z:Gabriele Fiamma
%%score [ 1 2 3 4 ]
L:1/8
Q:1/4=100
M:2/2
K:C
V:1 treble nm="Superius" snm="S"
V:2 alto1 nm="Cantus I" snm="C I"
V:3 alto2 nm="Cantus II" snm="C II"
V:4 alto nm="Cantus III" snm="C III"
V:1
 x8 | z2 z2 z2 x2 |[M:4/2] d6 d2 e4 f2 d2 | ^c4 d2 e4 e2 g4 | ^f4 z2 g4 g2 e4 | f2 f2 f2 f4 g2 e4 | %6
w: ||Co- me lu- me di|not- te in al- cun por-|to, Vi- de mai|d'al- to mar na- ve ne|
 d8 B4 z2 d2 | e2 f2 g6 f2 eegg | c2 f2 z2 e2 d2 d2 g2 c2 | B2 B2 e4 e4 f2 f2 | f4 e4 g8 | %11
w: le- gno, Se|non gliel tol- se o tem- pe- sta- te o|sco- gli, Co- sì di su, Co-|sì di su de la gon-|fia- ta ve-|
 g4 G4 A2 c2 d4 | d4 d4 B4 c2 c2 | e8 ^d8 | z2 e4 e2 c8 | z2 c4 A2 A2 f4 e2 | g4 f2 e2 e8 | %17
w: la, Vi- d'io l'in- se-|gne de quel- l'al- tra|vi- ta.|Et al- hor|so- spi- rai, so- spi-|rai ver- so il mio|
 d8 B4 e2 e2 | c8 z2 c4 A2 | A2 f4 e2 g4 f2 e2 | e8 d8 | !fermata!d16 |] %22
w: fi- ne, Et al-|hor so- spi-|rai, so- spi- rai ver- so il|mio fi-|ne.|
V:2
 x8 | z2 z2 z2 x2 |[M:4/2][K:treble] A6 B2 c4 c2 _B2 | A4 G4 c2 c2 d4 | d4 z2 d4 e2 c4 | %5
w: ||Co- me lu- me di|not- te in al- cun por-|to, Vi- de mai|
 c2 c2 c4 d4 c4 | B4 A4 d4 z2 B2 | c2 d2 e2 d2 ccAA c2 B2 | z2 d2 c4 B4 e4 | z2 d2 G2 G2 c4 c2 d2 | %10
w: d'al- to mar na- ve|ne le- gno, Se|non gliel tol- se o tem- pe- sta- te o sco- gli,|Co- sì di su,|Co- sì di su de la|
 c2 c4 A2 d8 | e4 z2 c4 A4 A2- | A2 G4 ^F2 z2 G4 E2 | c2 c2 B4 B4 z2 B2- | B2 B2 c4 z2 F4 E2 | %15
w: gon- fia- ta ve-|la, Vi- d'io l'in-|* se- gne de quel-|l'al- tra vi- ta. Et|_ al- hor so- spi-|
 E2 A4 c2 c4 c4- | c2 G2 A4 G4 c4 | B4 A4 d2 B2 B2 c2 | z2 F4 E2 E2 A4 c2 | c4 c6 G2 A4 | %20
w: rai, so- spi- rai, so-|* spi- rai ver- so il|mio fi- ne, Et al- hor|so- spi- rai, so- spi-|rai, so- spi- rai|
 G4 c4 B4 A4 | B16 |] %22
w: ver- so il mio fi-|ne.|
V:3
 x8 | z2 z2 z2 x2 |[M:4/2][K:treble] ^F6 G2 G4 A2 G2 | E4 D2 G4 A2 _B4 | A4 z2 B4 c2 G4 | %5
w: ||Co- me lu- me di|not- te in al- cun por-|to, Vi- de mai|
 A2 A2 A4 _B4 G2 A2- | A2 G3 ^F/E/ F2 G8 | z4 z2 D2 E2 F2 G3 G | AAA_B A2 G2 z2 G2 C2 C2 | %9
w: d'al- to mar na- ve ne|_ le- * * * gno,|Se non gliel tol- se o|tem- pe- sta- te o sco- gli, Co- sì di|
 G4 z2 E2 A4 F2 A2- | A2 A2 c6 BA B4 | c2 G2 E4 z2 F2 D2 D2 | B4 A4 G4 E2 G2- | G2 A2 G4 ^F8 | %14
w: su de la gon- fia-|* ta ve- * * *|la, Vi- d'io, Vi- d'io l'in-|se- gne de quel- l'al-|* tra vi- ta.|
 G6 G2 A4 G4- | G2 F2 E4 z2 A4 G2 | E4 c6 B4 A2- | A2 G3 ^F/E/ F2 G2 G4 G2 | A4 G6 F2 E4 | %19
w: Et al- hor so-|* spi- rai, so- spi-|rai ver- so il mio|_ fi- * * * ne, Et al-|hor so- spi- rai,|
 z2 A4 G2 E4 c4- | c2 B4 A4 G3 ^F/E/ F2 | G16 |] %22
w: so- spi- rai ver-|* so il mio fi- * * *|ne.|
V:4
 x8 | z2 z2 z2 x2 |[M:4/2][K:treble-8] d6 G2 c4 f2 g2 | A4 B2 c4 A2 G4 | d4 z2 g4 c2 c4 | %5
w: ||Co- me lu- me di|not- te in al- cun por-|to, Vi- de mai|
 f2 f2 f4 _B4 c2 c2 | d8 G8 | z4 z2 B2 c2 d2 e2 e2 | ffdd f2 c2 z4 z2 g2 | G2 G2 c4 A2 a4 d2 | %10
w: d'al- to mar na- ve ne|le- gno,|Se non gliel tol- se o|tem- pe- sta- te o sco- gli, Co-|sì di su de la gon-|
 f4 a4 g8 | c4 c4 A2 A2 f4 | d8 e4 c2 c2- | c2 A2 e4 B8 | e6 e2 f4 c4- | c2 A2 A4 f6 c2 | %16
w: fia- ta ve-|la, Vi- d'io l'in- se-|gne de quel- l'al-|* tra vi- ta.|Et al- hor so-|* spi- rai, so- spi-|
 c4 A4 e4 c4 | d4 d4 z2 e4 e2 | f4 c6 A2 A4 | f6 c2 c4 A4 | e4 c4 d8 | G16 |] %22
w: rai ver- so il mio|fi- ne, Et al-|hor so- spi- rai,|so- spi- rai ver-|so il mio fi-|ne.|

